DCCPanelController/Resources/AppIcon/appicon.svg

<?xml version="1.0" encoding="UTF-8" standalone="no"?>
<!DOCTYPE svg PUBLIC "-//W3C//DTD SVG 1.1//EN" "http://www.w3.org/Graphics/SVG/1.1/DTD/svg11.dtd">
<svg xmlns:dc="http://purl.org/dc/elements/1.1/" version="1.1" xmlns:xl="http://www.w3.org/1999/xlink" xmlns="http://www.w3.org/2000/svg" viewBox="0 0 64 64" width="64" height="64">
  <defs/>
  <g id="Canvas_1" fill="none" fill-opacity="1" stroke-dasharray="none" stroke-opacity="1" stroke="none">
    <title>Canvas 1</title>
    <g id="Canvas_1_Layer_1">
      <title>Layer 1</title>
      <g id="Graphic_2">
        <path d="M 16.4 48.9 L 7.8 62 L 12.4 62 L 20.8 48.9 Z" fill="#ccc"/>
      </g>
      <g id="Graphic_3">
        <path d="M 16.4 48.9 L 12 48.9 L 2 62 L 7.8 62 Z" fill="#e6e6e6"/>
      </g>
      <g id="Graphic_4">
        <path d="M 47.6 48.9 L 43.2 48.9 L 51.6 62 L 56.2 62 Z" fill="#ccc"/>
      </g>
      <g id="Graphic_5">
        <path d="M 47.6 48.9 L 56.2 62 L 62 62 L 52 48.9 Z" fill="#e6e6e6"/>
      </g>
      <g id="Graphic_6">
        <path d="M 43.99961 50.1 L 19.99961 50.1 L 12.39961 62 L 51.59961 62 Z" fill="white"/>
      </g>
      <g id="Graphic_7">
        <path d="M 52.39961 32.2 L 11.599611 32.2 L 11.599611 8.4 C 11.599611 7.8 21.79961 5 31.99961 5 C 42.19961 5 52.39961 7.8 52.39961 8.4 L 52.39961 32.2" fill="red"/>
      </g>
      <g id="Graphic_8">
        <path d="M 54.8 48.5 C 54.8 52.2 9.3 52.2 9.3 48.5 L 9.3 42.4 L 54.8 42.4 L 54.8 48.5" fill="#999"/>
      </g>
      <g id="Graphic_9">
        <path d="M 47.99961 52.7 C 47.99961 57.2 15.99961 57.2 15.99961 52.7 L 15.99961 45.2 L 47.99961 45.2 L 47.99961 52.7" fill="#999"/>
      </g>
      <g id="Graphic_10">
        <path d="M 54.75058 42.4 L 9.150581 42.4 L 9.150581 12.4 C 9.150581 11.6 20.55058 8.1 31.95058 8.1 C 43.35058 8.1 54.75058 11.6 54.75058 12.4 L 54.75058 42.4" fill="red"/>
      </g>
      <g id="Group_64">
        <g id="Graphic_13">
          <rect x="11.599611" y="12.900066" width="19.30039" height="6.499933" fill="#3e4347"/>
        </g>
        <g id="Graphic_12">
          <rect x="33.19806" y="12.900066" width="19.201552" height="6.4493274" fill="#3e4347"/>
        </g>
      </g>
      <g id="Graphic_14">
        <rect x="23" y="21.225" width="18" height="21.175" fill="#ff4040"/>
      </g>
      <g id="Graphic_15">
        <rect x="29.70058" y="24" width="4.5" height="7.725194" fill="#3e4347"/>
      </g>
      <g id="Graphic_24">
        <rect x="23" y="42.4" width="18" height="6.5" fill="#dead26"/>
      </g>
      <g id="Graphic_27">
        <rect x="29.70058" y="46.575" width="2" height="4.7" fill="#3e4347"/>
      </g>
      <g id="Graphic_26">
        <rect x="32.20058" y="46.575" width="2" height="4.7" fill="#3e4347"/>
      </g>
      <g id="Graphic_28">
        <rect x="8.2" y="42.4" width="47.7" height="2.8" fill="#dead26"/>
      </g>
      <g id="Graphic_35">
        <circle cx="32" cy="26.1" r="1.50000239685284" fill="white"/>
      </g>
      <g id="Graphic_37">
        <circle cx="31.95058" cy="29.5" r="1.50000239685284" fill="white"/>
      </g>
      <g id="Graphic_38">
        <path d="M 37.89961 10.625 L 26.09961 10.625 L 26.09961 6.341175 C 26.09961 5.786275 37.79961 5.786275 37.79961 6.341175 C 37.89961 7.007054 37.89961 10.625 37.89961 10.625" fill="#ff4040"/>
      </g>
      <g id="Graphic_39">
        <circle cx="16.987403" cy="10.6" r="1.0000015979019" fill="#ff8080"/>
      </g>
      <g id="Graphic_40">
        <circle cx="47.61318" cy="10.6" r="1.00000159790189" fill="#ff8080"/>
      </g>
      <g id="Group_46">
        <g id="Graphic_42">
          <rect x="17" y="46.575" width=".60000025" height="4.7" fill="#3e4347"/>
        </g>
        <g id="Graphic_44">
          <rect x="17.9" y="46.575" width=".60000025" height="4.7" fill="#3e4347"/>
        </g>
        <g id="Graphic_45">
          <rect x="18.8" y="46.575" width=".60000025" height="4.7" fill="#3e4347"/>
        </g>
      </g>
      <g id="Group_53">
        <g id="Graphic_50">
          <rect x="45.2" y="46.575" width=".60000025" height="4.7" fill="#3e4347"/>
        </g>
        <g id="Graphic_49">
          <rect x="46.1" y="46.575" width=".60000025" height="4.7" fill="#3e4347"/>
        </g>
        <g id="Graphic_48">
          <rect x="47.00116" y="46.575" width=".60000025" height="4.7" fill="#3e4347"/>
        </g>
      </g>
      <g id="Graphic_51">
        <rect x="30.67461" y="48.1" width="2.8" height="2" fill="#3e4347"/>
      </g>
      <g id="Graphic_52">
        <rect x="35.4" y="24.95" width="4.425194" height=".60000025" fill="#ff8080"/>
      </g>
      <g id="Graphic_54">
        <rect x="35.4" y="27" width="4.425194" height=".60000025" fill="#ff8080"/>
      </g>
      <g id="Graphic_55">
        <rect x="35.4" y="29.05" width="4.425194" height=".60000025" fill="#ff8080"/>
      </g>
      <g id="Graphic_56">
        <rect x="35.4" y="31.1" width="4.425194" height=".60000025" fill="#ff8080"/>
      </g>
      <g id="Graphic_61">
        <rect x="44.187984" y="27" width="4.425194" height=".60000025" fill="#ff8080"/>
      </g>
      <g id="Graphic_62">
        <rect x="15.987403" y="27" width="4.425194" height=".60000025" fill="#ff8080"/>
      </g>
      <g id="Graphic_63">
        <path d="M 40.5 5.925 L 44.69961 5.925 C 45.52804 5.925 46.19961 6.596573 46.19961 7.425 L 46.19961 7.425 C 46.19961 8.253427 45.52804 8.925 44.69961 8.925 L 40.5 8.925 C 39.671573 8.925 39 8.253427 39 7.425 L 39 7.425 C 39 6.596573 39.671573 5.925 40.5 5.925 Z" fill="#3e4347"/>
        <path d="M 40.5 5.925 L 44.69961 5.925 C 45.52804 5.925 46.19961 6.596573 46.19961 7.425 L 46.19961 7.425 C 46.19961 8.253427 45.52804 8.925 44.69961 8.925 L 40.5 8.925 C 39.671573 8.925 39 8.253427 39 7.425 L 39 7.425 C 39 6.596573 39.671573 5.925 40.5 5.925 Z" stroke="#b1001c" stroke-linecap="butt" stroke-linejoin="round" stroke-width="0"/>
      </g>
      <g id="Graphic_65">
        <path d="M 19.29961 5.925 L 23.49922 5.925 C 24.327648 5.925 24.99922 6.596573 24.99922 7.425 L 24.99922 7.425 C 24.99922 8.253427 24.327648 8.925 23.49922 8.925 L 19.29961 8.925 C 18.471183 8.925 17.79961 8.253427 17.79961 7.425 L 17.79961 7.425 C 17.79961 6.596573 18.471183 5.925 19.29961 5.925 Z" fill="#3e4347"/>
        <path d="M 19.29961 5.925 L 23.49922 5.925 C 24.327648 5.925 24.99922 6.596573 24.99922 7.425 L 24.99922 7.425 C 24.99922 8.253427 24.327648 8.925 23.49922 8.925 L 19.29961 8.925 C 18.471183 8.925 17.79961 8.253427 17.79961 7.425 L 17.79961 7.425 C 17.79961 6.596573 18.471183 5.925 19.29961 5.925 Z" stroke="#b1001c" stroke-linecap="butt" stroke-linejoin="round" stroke-width="0"/>
      </g>
      <g id="Graphic_66">
        <rect x="44.90058" y="38.700067" width="3" height="6.499933" fill="#dead26"/>
      </g>
      <g id="Graphic_67">
        <circle cx="46.40058" cy="40.55" r="1.50000239685284" fill="white"/>
      </g>
      <g id="Graphic_69">
        <rect x="16.812016" y="38.700067" width="3" height="6.499933" fill="#dead26"/>
      </g>
      <g id="Graphic_68">
        <circle cx="18.312016" cy="40.55" r="1.50000239685284" fill="white"/>
      </g>
      <g id="Group_74">
        <g id="Graphic_20">
          <rect x="10.974611" y="35.25" width=".625" height="11.8" fill="white"/>
        </g>
        <g id="Graphic_71">
          <rect x="11.974611" y="35.76349" width=".625" height="11.89078" fill="white"/>
        </g>
        <g id="Graphic_72">
          <path d="M 10.974611 35.28749 L 20.144933 27.86151 L 20.530392 28.33751 L 11.36007 35.76349 Z" fill="white"/>
        </g>
        <g id="Graphic_73">
          <path d="M 11.974611 35.77499 L 21.144933 28.34901 L 21.530392 28.82501 L 12.36007 36.25099 Z" fill="white"/>
        </g>
      </g>
      <g id="Group_75">
        <g id="Graphic_79">
          <rect x="52.40039" y="35.25" width=".625" height="11.8" fill="white"/>
        </g>
        <g id="Graphic_78">
          <rect x="51.40039" y="35.76349" width=".625" height="11.89078" fill="white"/>
        </g>
        <g id="Graphic_77">
          <path d="M 53.02539 35.28749 L 43.855067 27.86151 L 43.46961 28.33751 L 52.63993 35.76349 Z" fill="white"/>
        </g>
        <g id="Graphic_76">
          <path d="M 52.02539 35.77499 L 42.855067 28.34901 L 42.46961 28.82501 L 51.63993 36.25099 Z" fill="white"/>
        </g>
      </g>
    </g>
  </g>
</svg>

<?xml version="1.0" encoding="utf-8"?>
<!-- Uploaded to: SVG Repo, www.svgrepo.com, Generator: SVG Repo Mixer Tools -->
<svg width="800px" height="800px" viewBox="0 0 64 64" xmlns="http://www.w3.org/2000/svg" xmlns:xlink="http://www.w3.org/1999/xlink" aria-hidden="true" role="img" class="iconify iconify--emojione" preserveAspectRatio="xMidYMid meet">
<path fill="#94989b" d="M16.4 48.9L7.8 62h4.6l8.4-13.1z">
</path>
<path fill="#e6e6e6" d="M16.4 48.9H12L2 62h5.8z">
</path>
<path fill="#94989b" d="M47.6 48.9h-4.4L51.6 62h4.6z">
</path>
<path fill="#e6e6e6" d="M47.6 48.9L56.2 62H62L52 48.9z">
</path>
<path fill="#3e4347" d="M44 50.1H20L12.4 62h39.2z">
</path>
<path d="M52.4 32.2H11.6V8.4C11.6 7.8 21.8 5 32 5s20.4 2.8 20.4 3.4v23.8" fill="#ba573f">
</path>
<path d="M54.8 48.5c0 3.7-45.5 3.7-45.5 0v-6.1h45.5v6.1" fill="#c5cdd3">
</path>
<path d="M48 52.7c0 4.5-32 4.5-32 0v-7.5h32v7.5" fill="#dae3ea">
</path>
<path d="M54.8 42.4H9.2v-30c0-.8 11.4-4.3 22.8-4.3s22.8 3.5 22.8 4.3v30" fill="#f14e3a">
</path>
<g fill="#3e4347">
<path d="M11.6 13.7v9.5L30.9 20v-9.5c-.2-.8-19.4 2.4-19.3 3.2">
</path>
<path d="M33.1 10.5V20l19.2 3.1v-9.5c.2-.7-19-3.9-19.2-3.1">
</path>
</g>
<path d="M37.9 42.4H26.1V23.1c0-2.5 11.7-2.5 11.7 0c.1 3 .1 19.3.1 19.3" fill="#fdf516">
</path>
<ellipse cx="32" cy="27.3" rx="3.4" ry="3.3" fill="#3e4347">
</ellipse>
<g fill="#f14e3a">
<ellipse cx="21.9" cy="5.1" rx="3.2" ry="3.1">
</ellipse>
<ellipse cx="42.1" cy="5.1" rx="3.2" ry="3.1">
</ellipse>
</g>
<g fill="#fdf516">
<path d="M42.3 33.6c-5-1.1-15.6-1.1-20.6 0c-.7.1-1.9.8-1.9 1.9v3.8c0 1 1.3 1.7 1.9 1.9c5 1.1 15.6 1.1 20.6 0c.7-.1 1.9-.8 1.9-1.9v-3.8c.1-1.1-1.2-1.8-1.9-1.9m-.2 5c0 .7-1 1.2-1.6 1.2c-4.2.7-12.9.7-17.1 0c-.6-.1-1.6-.6-1.6-1.2v-2.5c0-.7 1-1.2 1.6-1.2c4.2-.7 12.9-.7 17.1 0c.6.1 1.6.6 1.6 1.2v2.5">
</path>
<path d="M9.2 36.3h45.6v2.1H9.2z">
</path>
</g>
<path d="M35.3 36.3c0 1.8-1.5 3.3-3.3 3.3s-3.3-1.5-3.3-3.3c0-1.8 1.5-3.3 3.3-3.3c1.8 0 3.3 1.5 3.3 3.3" fill="#3e4347">
</path>
<circle cx="32" cy="36.3" r="1.5" fill="#ffffff">
</circle>
<path fill="#94989b" d="M23 42.4h18v6.5H23z">
</path>
<g fill="#3e4347">
<path d="M27.8 46.9h2.1v4.7h-2.1z">
</path>
<path d="M34.1 46.9h2.1v4.7h-2.1z">
</path>
</g>
<path fill="#94989b" d="M8.2 42.4h47.7v2.8H8.2z">
</path>
<path fill="#f14e3a" d="M26.1 53h11.7v4.3H26.1z">
</path>
<g fill="#3e4347">
<path d="M55.8 32.9c-.1.6-.7 1-1.4.9l-9.3-1.6c-.6-.1-1.1-.7-1-1.3l.4-2.1c.1-.6.7-1 1.4-.9l9.3 1.6c.6.1 1.1.7 1 1.3l-.4 2.1">
</path>
<path d="M19.7 30.9c.1.6-.3 1.2-1 1.3l-9.3 1.6c-.6.1-1.3-.3-1.4-.9l-.4-2.1c-.1-.6.3-1.2 1-1.3l9.3-1.6c.6-.1 1.3.3 1.4.9l.4 2.1">
</path>
</g>
</svg>
